!!!!SEGMENT: Cha2001-De_profundis_clamavi.krn
!!!id: Cha2001
!!!AGN: Motet
!!!SCT: Macey (2009)
!!!voices: 4
!!!COM: Nicolas Champion
!!!OTL: De profundis clamavi
**kern	**text	**kern	**text	**kern	**text	**kern	**text
*part4	*part4	*part3	*part3	*part2	*part2	*part1	*part1
*staff4	*staff4	*staff3	*staff3	*staff2	*staff2	*staff1	*staff1
*I"Bassus	*	*I"Tenor	*	*I"Altus	*	*I"Superius	*
*I'B	*	*I'T	*	*I'A	*	*I'S	*
*clefF4	*	*clefGv2	*	*clefGv2	*	*clefG2	*
*k[]	*	*k[]	*	*k[]	*	*k[]	*
*C:	*	*C:	*	*C:	*	*C:	*
*M2/1	*	*M2/1	*	*M2/1	*	*M2/1	*
*met(C|)	*	*met(C|)	*	*met(C|)	*	*met(C|)	*
!!section: Prima pars: De profundis clamavi
!!!OMD: Prima pars: De profundis clamavi
=1	=1	=1	=1	=1	=1	=1	=1
0r	.	0r	.	1r	.	[0e	De
.	.	.	.	[1A	De	.	.
=2	=2	=2	=2	=2	=2	=2	=2
0r	.	0r	.	0A]	.	1e]	.
.	.	.	.	.	.	1c	pro-
=3	=3	=3	=3	=3	=3	=3	=3
0r	.	0r	.	1F	pro-	1d	.
.	.	.	.	1G	.	[1e	-fun-
=4	=4	=4	=4	=4	=4	=4	=4
0r	.	0r	.	1.A	-fun-	2e]	.
.	.	.	.	.	.	2A	.
.	.	.	.	.	.	[1A	-dis
.	.	.	.	2D	.	.	.
=5	=5	=5	=5	=5	=5	=5	=5
0r	.	0r	.	0D	-dis	1A]	.
.	.	.	.	.	.	1f	cla-
=6	=6	=6	=6	=6	=6	=6	=6
0r	.	0r	.	1r	.	0f	-ma-
.	.	.	.	1d	cla-	.	.
=7	=7	=7	=7	=7	=7	=7	=7
0r	.	0r	.	2c	-ma-	0e	-vi
.	.	.	.	2.A	.	.	.
.	.	.	.	4G	.	.	.
.	.	.	.	2G	-vi	.	.
=8	=8	=8	=8	=8	=8	=8	=8
0r	.	0r	.	4A	ad	1e	ad
.	.	.	.	4G	.	.	.
.	.	.	.	2c	.	.	.
.	.	.	.	2B	te,	2d	te,
.	.	.	.	[2A	do-	2c	do-
=9	=9	=9	=9	=9	=9	=9	=9
1r	.	[0E	De	2A]	.	1B	.
.	.	.	.	2G#i	.	.	.
[1AA	De	.	.	1A	.	2A	.
.	.	.	.	.	.	[2c	.
=10	=10	=10	=10	=10	=10	=10	=10
0AA]	.	1E]	.	1.c	.	4c]	.
.	.	.	.	.	.	4d	.
.	.	.	.	.	.	1e	.
.	.	1C	pro-	.	.	.	.
.	.	.	.	2B	.	4d	.
.	.	.	.	.	.	4c	.
=11	=11	=11	=11	=11	=11	=11	=11
1FF	pro-	1D	.	1A	.	2.f	.
.	.	.	.	.	.	4e	.
1GG	.	[1E	-fun-	2G	.	4e	.
.	.	.	.	.	.	4d	.
.	.	.	.	2F	.	[2d	.
=12	=12	=12	=12	=12	=12	=12	=12
1.AA	-fun-	2E]	.	1.E	.	2d]	.
.	.	2C	.	.	.	4c#i	.
.	.	.	.	.	.	4B	.
.	.	[1AA	-dis	.	.	2c#i	.
2DD	.	.	.	2D	-mi-	2d	-mi-
=13	=13	=13	=13	=13	=13	=13	=13
0DD	-dis	1AA]	.	0D	-ne,	[0d	-ne,
.	.	1F	cla-	.	.	.	.
=14	=14	=14	=14	=14	=14	=14	=14
1r	.	0F	-ma-	1r	.	0d]	.
1D	cla-	.	.	1r	.	.	.
=15	=15	=15	=15	=15	=15	=15	=15
2C	-ma-	0E	-vi	0r	.	0r	.
2.AA	.	.	.	.	.	.	.
4GG	.	.	.	.	.	.	.
2GG	-vi	.	.	.	.	.	.
=16	=16	=16	=16	=16	=16	=16	=16
4AA	ad	1E	ad	0r	.	0r	.
4GG	.	.	.	.	.	.	.
2C	te,	.	.	.	.	.	.
2BB	.	2D	te,	.	.	.	.
[2AA	do-	2C	do-	.	.	.	.
=17	=17	=17	=17	=17	=17	=17	=17
2AA]	.	1BB	-mi-	1r	.	1r	.
2GG#i	-mi-	.	.	.	.	.	.
1AA	-ne,	1AA	-ne,	2r	.	[1c	do-
.	.	.	.	[2A	do-	.	.
=18	=18	=18	=18	=18	=18	=18	=18
2r	.	1.F	do-	2A]	.	2c]	.
2.FF	do-	.	.	2A	-mi-	2c	-mi-
.	.	.	.	[1A	-ne	2.c	-ne
4GG	.	.	.	.	.	.	.
4AA	.	2F	-mi-	.	.	.	.
4BB	.	.	.	.	.	4d	.
=19	=19	=19	=19	=19	=19	=19	=19
2C	.	2E	-ne	1A]	.	1e	.
2C	-mi-	2E	ex-	.	.	.	.
2FF	-ne	1A	-au-	1r	.	2r	.
2FF	ex-	.	.	.	.	2f	ex-
=20	=20	=20	=20	=20	=20	=20	=20
1C	-au-	1G	-di	1c	ex-	1g	-au-
2.C	-di	2r	.	1c	-au-	[1g	-di
.	.	[2G	vo-	.	.	.	.
4D	.	.	.	.	.	.	.
=21	=21	=21	=21	=21	=21	=21	=21
2E	.	2G]	.	1.c	-di	2g]	.
2F	vo-	2A	.	.	.	2f	vo-
2E	-cem	2G	-cem	.	.	2g	-cem
[2D	me-	[2A	me-	2d	vo-	[2f	me-
=22	=22	=22	=22	=22	=22	=22	=22
2D]	.	4A]	.	2B	-cem	4f]	.
.	.	4G	.	.	.	4e	.
2C	.	2E	.	2c	me-	1e	.
1D	.	1F	.	1A	-am.	.	.
.	.	.	.	.	.	2d	.
=23	=23	=23	=23	=23	=23	=23	=23
[0AA	-am.	[0E	-am.	1r	.	[0e	-am.
.	.	.	.	1A	Fi-	.	.
=24	=24	=24	=24	=24	=24	=24	=24
1AA]	.	0E]	.	2.c	-ant	0e_	.
.	.	.	.	4d	.	.	.
1r	.	.	.	1B	au-	.	.
=25	=25	=25	=25	=25	=25	=25	=25
0AA	Fi-	1r	.	2A	-res	0e]	.
.	.	.	.	1c	tu-	.	.
.	.	[1E	Fi-	.	.	.	.
.	.	.	.	4B	.	.	.
.	.	.	.	4A	.	.	.
=26	=26	=26	=26	=26	=26	=26	=26
1C	-ant	1E]	.	2G	.	0r	.
.	.	.	.	1A	.	.	.
1BB	au-	1G	-ant	.	.	.	.
.	.	.	.	2G	.	.	.
=27	=27	=27	=27	=27	=27	=27	=27
1AA	-res	1F	au-	1A	-e...	0r	.
[1C	tu-	1E	-res	1r	.	.	.
=28	=28	=28	=28	=28	=28	=28	=28
1C]	.	0G	tu-	0r	.	0r	.
1GG	-e	.	.	.	.	.	.
=29	=29	=29	=29	=29	=29	=29	=29
2r	.	1D	-e	0r	.	0r	.
2D	in-	.	.	.	.	.	.
2.E	-ten-	2r	.	.	.	.	.
.	.	2G	in-	.	.	.	.
4C	.	.	.	.	.	.	.
=30	=30	=30	=30	=30	=30	=30	=30
0F	-den-	2.A	-ten-	0r	.	0r	.
.	.	4B	.	.	.	.	.
.	.	2c	.	.	.	.	.
.	.	[2d	-den-	.	.	.	.
=31	=31	=31	=31	=31	=31	=31	=31
2.E	.	4d]	.	0r	.	1r	.
.	.	4c	.	.	.	.	.
.	.	1c	.	.	.	.	.
8DL	.	.	.	.	.	.	.
8CJ	.	.	.	.	.	.	.
1D	.	.	.	.	.	1d	In
.	.	2B	.	.	.	.	.
=32	=32	=32	=32	=32	=32	=32	=32
[0C	-tes	[0c	-tes	0r	.	0g	vo-
=33	=33	=33	=33	=33	=33	=33	=33
0C]	.	0c_	.	1r	.	1e	-cem
.	.	.	.	1E	in	2r	.
.	.	.	.	.	.	[2e	de-
=34	=34	=34	=34	=34	=34	=34	=34
1r	.	0c]	.	0A	vo-	2e]	.
.	.	.	.	.	.	2e	-pre-
1AA	in	.	.	.	.	2e	-ca-
.	.	.	.	.	.	2e	-ti-
=35	=35	=35	=35	=35	=35	=35	=35
0D	vo-	1r	.	1A	-cem	[0f	-o-
.	.	1A	in	2r	.	.	.
.	.	.	.	[2A	de-	.	.
=36	=36	=36	=36	=36	=36	=36	=36
1D	-cem	1d	vo-	2A]	.	1f]	.
.	.	.	.	2A	-pre-	.	.
1r	.	1c	-cem	2A	-ca-	1e	-nis
.	.	.	.	2A	-ti-	.	.
=37	=37	=37	=37	=37	=37	=37	=37
2.D	de-	2.F	de-	1B	-o-	2d	me-
.	.	.	.	.	.	2.f	.
4D	-pre-	4F	-pre-	.	.	.	.
2D	-ca-	2F	-ca-	1A	-nis	.	.
.	.	.	.	.	.	4g	.
2D	-ti-	2F	-ti-	.	.	4a	.
.	.	.	.	.	.	4f	.
=38	=38	=38	=38	=38	=38	=38	=38
1D	-o-	1F	-o-	2r	.	2b-i	.
.	.	.	.	2.d	me-	2.a	.
1E	-nis	1G	-nis	.	.	.	.
.	.	.	.	4B	.	4g	.
.	.	.	.	2c	.	[2g	.
=39	=39	=39	=39	=39	=39	=39	=39
0D	me-	0A	me-	0d	.	2g]	.
.	.	.	.	.	.	4f#i	.
.	.	.	.	.	.	4e	.
.	.	.	.	.	.	1f#i	.
=40	=40	=40	=40	=40	=40	=40	=40
[0GG	-e.	[0G	-e.	0B	-e.	0g	-e.
=41	=41	=41	=41	=41	=41	=41	=41
0GG]	.	0G]	.	0r	.	1r	.
.	.	.	.	.	.	1d	Si
=42	=42	=42	=42	=42	=42	=42	=42
0r	.	0r	.	1G	Si	1g	in-
.	.	.	.	1c	in-	2g	-i-
.	.	.	.	.	.	2g	-qui-
=43	=43	=43	=43	=43	=43	=43	=43
1r	.	0r	.	2c	-i-	2.g	-ta-
.	.	.	.	2c	-qui-	.	.
.	.	.	.	.	.	4a	.
1GG	Si	.	.	1d	-ta-	1b	.
=44	=44	=44	=44	=44	=44	=44	=44
1C	in-	1E	Si	1c	-tes	0e	-tes
2C	-i-	1G	in-	[1e	ob-	.	.
2C	-qui-	.	.	.	.	.	.
=45	=45	=45	=45	=45	=45	=45	=45
2.C	-ta-	1.G	-i-	1e]	.	1g	ob-
4D	.	.	.	.	.	.	.
1E	.	.	.	1e	-ser-	1g	-ser-
.	.	2G	-qui-	.	.	.	.
=46	=46	=46	=46	=46	=46	=46	=46
1AA	-tes	1A	-ta-	1e	-va-	1cc	-va-
[1E	ob-	1G	-tes	1e	-ve-	1b	-ver-
=47	=47	=47	=47	=47	=47	=47	=47
1E]	.	2r	.	[0e	-ris,	0b	-ris,
.	.	1G	ob-	.	.	.	.
1E	-ser-	.	.	.	.	.	.
.	.	2G	-ser-	.	.	.	.
=48	=48	=48	=48	=48	=48	=48	=48
1AA	-va-	1c	-va-	0e_	.	1a	do-
1AA	-ve-	1c	-ve-	.	.	1a	-mi-
=49	=49	=49	=49	=49	=49	=49	=49
0E	-ris,	0B	-ris,	0e]	.	0b	-ne,
=50	=50	=50	=50	=50	=50	=50	=50
1F	do-	1A	do-	1c	do-	1r	.
1F	-mi-	1A	-mi-	1d	-mi-	1r	.
=51	=51	=51	=51	=51	=51	=51	=51
[0E	-ne,	[0B	-ne,	1e	-ne,	1.g	do-
.	.	.	.	2r	.	.	.
.	.	.	.	[2e	do-	2g	-mi-
=52	=52	=52	=52	=52	=52	=52	=52
0E]	.	0B]	.	2e]	.	1g	-ne
.	.	.	.	2e	-mi-	.	.
.	.	.	.	2e	-ne	1g	quis
.	.	.	.	2e	quis	.	.
=53	=53	=53	=53	=53	=53	=53	=53
0r	.	0r	.	4f	sus-	1a	sus-
.	.	.	.	4e	.	.	.
.	.	.	.	4d	.	.	.
.	.	.	.	4c	.	.	.
.	.	.	.	2d	-ti-	2f	-ti-
.	.	.	.	[2e	-ne-	[2g	-ne-
=54	=54	=54	=54	=54	=54	=54	=54
0r	.	0r	.	4e]	.	4g]	.
.	.	.	.	4d	.	4f	.
.	.	.	.	1d	.	4e	.
.	.	.	.	.	.	4d	.
.	.	.	.	.	.	1e	.
.	.	.	.	2c#i	.	.	.
=55	=55	=55	=55	=55	=55	=55	=55
1.D	do-	1r	.	0d	-bit,	0d	-bit,
.	.	1A	do-	.	.	.	.
2D	-mi-	.	.	.	.	.	.
=56	=56	=56	=56	=56	=56	=56	=56
1D	-ne	2B	-mi-	0r	.	1r	.
.	.	1A	-ne	.	.	.	.
1D	quis	.	.	.	.	1r	.
.	.	[2d	quis	.	.	.	.
=57	=57	=57	=57	=57	=57	=57	=57
1E	sus-	4d]	.	0r	.	1r	.
.	.	8cL	.	.	.	.	.
.	.	8BJ	.	.	.	.	.
.	.	2.c	sus-	.	.	.	.
2C	-ti-	.	.	.	.	1r	.
.	.	4B	.	.	.	.	.
[2D	-ne-	[2B	-ti-	.	.	.	.
=58	=58	=58	=58	=58	=58	=58	=58
4D]	.	4B]	.	0r	.	1r	.
4C	.	4A	.	.	.	.	.
4BB	.	2.A	-ne-	.	.	.	.
4AA	.	.	.	.	.	.	.
1BB	.	.	.	.	.	2.d	quis
.	.	4G#i	.	.	.	.	.
.	.	2G#i	.	.	.	.	.
.	.	.	.	.	.	4e	.
=59	=59	=59	=59	=59	=59	=59	=59
1AA	-bit,	1A	-bit,	2r	.	2f	sus-
.	.	.	.	2.A	quis	2e	.
2D	sus-	2F	sus-	.	.	2d	-ti-
.	.	.	.	4B	.	.	.
2C	-ti-	[2G	-ti-	2c	.	[2e	-ne-
=60	=60	=60	=60	=60	=60	=60	=60
1BB	-ne-	4G]	.	2d	sus-	4e]	.
.	.	4F	.	.	.	4d	.
.	.	4E	.	2G	-ti-	1d	.
.	.	4D	.	.	.	.	.
1AA	-bit?	1E	-ne-	1A	-ne-	.	.
.	.	.	.	.	.	2c#i	.
=61	=61	=61	=61	=61	=61	=61	=61
0r	.	[0D	-bit?	0A	-bit?	0d	-bit?
=62	=62	=62	=62	=62	=62	=62	=62
0r	.	0D_	.	1r	.	0r	.
.	.	.	.	[1d	Qui-	.	.
=63	=63	=63	=63	=63	=63	=63	=63
0r	.	0D]	.	1d]	.	0a	Qui-
.	.	.	.	1d	-a	.	.
=64	=64	=64	=64	=64	=64	=64	=64
0r	.	0r	.	1f	a-	1a	-a
.	.	.	.	1c	-pud	1cc	a-
=65	=65	=65	=65	=65	=65	=65	=65
0E	Qui-	1r	.	0e	te	1g	-pud
.	.	[1B	Qui-	.	.	[1b	te
=66	=66	=66	=66	=66	=66	=66	=66
1E	-a	1B]	.	0r	.	0b]	.
1G	a-	1B	-a	.	.	.	.
=67	=67	=67	=67	=67	=67	=67	=67
1D	-pud	1d	a-	0r	.	1r	.
[1F	te	1A	-pud	.	.	1a	pro-
=68	=68	=68	=68	=68	=68	=68	=68
0F]	.	0c	te	1A	pro-	2a	-pi-
.	.	.	.	.	.	2a	-ti-
.	.	.	.	2A	-pi-	2cc	-a-
.	.	.	.	2A	-ti-	2cc	-ti-
=69	=69	=69	=69	=69	=69	=69	=69
1r	.	0r	.	2c	-a-	1g	-o
.	.	.	.	2c	-ti-	.	.
1E	pro-	.	.	1G	-o	[1b	est,
=70	=70	=70	=70	=70	=70	=70	=70
2E	-pi-	1B	pro-	0B	est,	0b]	.
2E	-ti-	.	.	.	.	.	.
2G	-a-	2B	-pi-	.	.	.	.
2G	-ti-	2B	-ti-	.	.	.	.
=71	=71	=71	=71	=71	=71	=71	=71
1D	-o	2d	-a-	0r	.	1r	.
.	.	2d	-ti-	.	.	.	.
[1F	est,	1A	-o	.	.	1a	et
=72	=72	=72	=72	=72	=72	=72	=72
0F]	.	0c	est,	1A	et	2a	prop-
.	.	.	.	.	.	2a	-ter
.	.	.	.	2A	prop-	2.cc	le-
.	.	.	.	2A	-ter	.	.
.	.	.	.	.	.	4b	.
=73	=73	=73	=73	=73	=73	=73	=73
0r	.	0r	.	2c	le-	2a	.
.	.	.	.	2c	-gem	2g	-gem
.	.	.	.	1d	tu-	1f	tu-
=74	=74	=74	=74	=74	=74	=74	=74
1r	.	1A	et	0e	-am	0e	-am
1AA	et	2A	prop-	.	.	.	.
.	.	2A	-ter	.	.	.	.
=75	=75	=75	=75	=75	=75	=75	=75
2AA	prop-	2.c	le-	0r	.	1r	.
2AA	-ter	.	.	.	.	.	.
.	.	4B	.	.	.	.	.
2C	le-	2A	.	.	.	1r	.
2C	-gem	2G	-gem	.	.	.	.
=76	=76	=76	=76	=76	=76	=76	=76
1D	tu-	1F	tu-	1r	.	1r	.
1E	-am	1E	-am	1B	sus-	1g	sus-
=77	=77	=77	=77	=77	=77	=77	=77
0C	sus-	1G	sus-	1.c	-ti-	2g	-ti-
.	.	.	.	.	.	2g	-nu-
.	.	[1G	-ti-	.	.	2e	-i
.	.	.	.	2c	-nu-	[2g	te,
=78	=78	=78	=78	=78	=78	=78	=78
1C	-ti-	1G]	.	1c	-i	4g]	.
.	.	.	.	.	.	4f	.
.	.	.	.	.	.	4e	.
.	.	.	.	.	.	4d	.
[1F	-nu-	[1A	-nu-	1c	te,	2c	.
.	.	.	.	.	.	[2cc	do-
=79	=79	=79	=79	=79	=79	=79	=79
1F]	.	1A]	.	1c	do-	2cc]	.
.	.	.	.	.	.	2b	.
1F	-i	1A	-i	1d	-mi-	1a	-mi-
=80	=80	=80	=80	=80	=80	=80	=80
1.E	te,	1B	.	1e	-ne.	0g	-ne.
.	.	1G	te,	1r	.	.	.
2D	.	.	.	.	.	.	.
=81	=81	=81	=81	=81	=81	=81	=81
1C	do-	2G	do-	1e	Sus-	1r	.
.	.	2G	-mi-	.	.	.	.
1BB	.	1D	-ne.	2d	-ti-	1g	Sus-
.	.	.	.	2d	-nu-	.	.
=82	=82	=82	=82	=82	=82	=82	=82
0AA	-mi-	2r	.	2.c	-it	1cc	-ti-
.	.	2A	Sus-	.	.	.	.
.	.	.	.	8dL	.	.	.
.	.	.	.	8eJ	.	.	.
.	.	2A	-ti-	2f	.	1cc	-nu-
.	.	2A	-nu-	[2e	a-	.	.
=83	=83	=83	=83	=83	=83	=83	=83
0GG	-ne.	1D	-it	4e]	.	1b	-it
.	.	.	.	4d	.	.	.
.	.	.	.	1d	-ni-	.	.
.	.	2D	a-	.	.	2r	.
.	.	2E	-ni-	4c	.	2g	a-
.	.	.	.	4B	.	.	.
=84	=84	=84	=84	=84	=84	=84	=84
0r	.	2F	-ma	2A	.	2a	-ni-
.	.	2.G	me-	2G	-ma	2b	-ma
.	.	.	.	1A	me-	1cc	me-
.	.	4F#i	.	.	.	.	.
.	.	2F#i	.	.	.	.	.
=85	=85	=85	=85	=85	=85	=85	=85
0r	.	0G	-a...	1G	-a	0b	-a
.	.	.	.	2r	.	.	.
.	.	.	.	2d	in	.	.
=86	=86	=86	=86	=86	=86	=86	=86
0r	.	0r	.	1e	ver-	1g	in
.	.	.	.	2.f	.	2.a	ver-
.	.	.	.	4e	.	4g	.
=87	=87	=87	=87	=87	=87	=87	=87
1r	.	0r	.	4d	.	2f	.
.	.	.	.	4c	.	.	.
.	.	.	.	1c	-bo	2e	-bo
1GG	Spe-	.	.	.	.	1d	e-
.	.	.	.	2B	e-	.	.
=88	=88	=88	=88	=88	=88	=88	=88
[0C	-ra-	1G	spe-	1c	-jus,	0c	-jus,
.	.	[1G	-ra-	1e	spe-	.	.
=89	=89	=89	=89	=89	=89	=89	=89
1C]	.	2G]	.	1.e	-ra-	1r	.
.	.	2G	-vit	.	.	.	.
1C	-vit	2E	a-	.	.	1c	spe-
.	.	2E	-ni-	2e	-vit	.	.
=90	=90	=90	=90	=90	=90	=90	=90
1D	a-	1F	-ma	1d	a-	1.f	-ra-
1D	-ni-	1F	me-	1d	-ni-	.	.
.	.	.	.	.	.	2f	-vit
=91	=91	=91	=91	=91	=91	=91	=91
1F	-ma	0A	-a	1c	-ma	1f	a-
1F	me-	.	.	1c	me-	1f	-ni-
=92	=92	=92	=92	=92	=92	=92	=92
0C	-a	1r	.	2.e	.	1g	-ma
.	.	.	.	4d	.	.	.
.	.	1E	in	4e	.	1g	me-
.	.	.	.	4d	.	.	.
.	.	.	.	4c	.	.	.
.	.	.	.	4B	.	.	.
=93	=93	=93	=93	=93	=93	=93	=93
1r	.	1.F	do-	0A	-a	1.a	-a
[1D	in	.	.	.	.	.	.
.	.	2G	.	.	.	2g	in
=94	=94	=94	=94	=94	=94	=94	=94
1D]	.	1A	.	1r	.	1f	do-
1C	.	1E	.	1c	in	1e	.
=95	=95	=95	=95	=95	=95	=95	=95
1D	do-	0F	-mi-	1A	do-	2d	.
.	.	.	.	.	.	1f	.
1D	-mi-	.	.	1B	-mi-	.	.
.	.	.	.	.	.	4e	-mi-
.	.	.	.	.	.	4d	.
=	=	=	=	=	=	=	=
00AA	-no.	00E	-no.	00A	-no.	00c	-no.
=||	=||	=||	=||	=||	=||	=||	=||
*M2/1	*	*M2/1	*	*M2/1	*	*M2/1	*
*met(C|)	*	*met(C|)	*	*met(C|)	*	*met(C|)	*
!!section: Secunda pars: A custodia matutina
!!!OMD: Secunda pars: A custodia matutina
1.C	A	1r	.	0r	.	0r	.
.	.	[1G	A	.	.	.	.
2C	cus-	.	.	.	.	.	.
=96	=96	=96	=96	=96	=96	=96	=96
2C	-to-	2G]	.	0r	.	0r	.
2C	-di-	2G	cus-	.	.	.	.
1GG	-a	2G	-to-	.	.	.	.
.	.	2G	-di-	.	.	.	.
=97	=97	=97	=97	=97	=97	=97	=97
1GG	ma-	1D	-a	0r	.	0r	.
2.BB	-tu-	1D	ma-	.	.	.	.
4GG	-ti-	.	.	.	.	.	.
=98	=98	=98	=98	=98	=98	=98	=98
0D	-na	2.F	-tu-	0r	.	0r	.
.	.	4D	-ti-	.	.	.	.
.	.	[1A	-na	.	.	.	.
=99	=99	=99	=99	=99	=99	=99	=99
2r	.	1A]	.	0r	.	0r	.
1D	us-	.	.	.	.	.	.
.	.	1r	.	.	.	.	.
2C	-que	.	.	.	.	.	.
=100	=100	=100	=100	=100	=100	=100	=100
1D	ad	2r	.	0r	.	0r	.
.	.	1A	us-	.	.	.	.
1BB	noc-	.	.	.	.	.	.
.	.	2G	-que	.	.	.	.
=101	=101	=101	=101	=101	=101	=101	=101
1AA	-tem	1A	ad	0r	.	2r	.
.	.	.	.	.	.	1e	Us-
1r	.	1F	noc-	.	.	.	.
.	.	.	.	.	.	2d	-que
=102	=102	=102	=102	=102	=102	=102	=102
1r	.	0E	-tem	1r	.	1e	ad
1AA	spe-	.	.	2r	.	1c	noc-
.	.	.	.	[2A	Us-	.	.
=103	=103	=103	=103	=103	=103	=103	=103
1E	-ret	1r	.	2A]	.	1B	-tem
.	.	.	.	2G	-que	.	.
[1AA	Is-	1E	spe-	1A	ad	2r	.
.	.	.	.	.	.	[2c	spe-
=104	=104	=104	=104	=104	=104	=104	=104
2AA]	.	1A	-ret	1F	noc-	2c]	.
2BB	.	.	.	.	.	2d	-ret
2.C	-ra-	[1G	Is-	1E	-tem	2e	Is-
.	.	.	.	.	.	2f	-ra-
4D	.	.	.	.	.	.	.
=105	=105	=105	=105	=105	=105	=105	=105
1.E	-el	1G]	.	2r	.	2.g	-el
.	.	.	.	1e	spe-	.	.
.	.	.	.	.	.	4a	.
.	.	1G	-ra-	.	.	4b	.
.	.	.	.	.	.	4cc	.
2E	in	.	.	2e	-ret	[2b	in
=106	=106	=106	=106	=106	=106	=106	=106
1E	do-	1c	-el	1e	Is-	4b]	.
.	.	.	.	.	.	4a	.
.	.	.	.	.	.	1a	do-
1E	-mi-	1B	in	1e	-ra-	.	.
.	.	.	.	.	.	2g#i	-mi-
=107	=107	=107	=107	=107	=107	=107	=107
[0AA	-no.	1.A	do-	2.c	-el	0a	-no.
.	.	.	.	8dL	.	.	.
.	.	.	.	8eJ	.	.	.
.	.	.	.	2f	.	.	.
.	.	2G	.	[2e	in	.	.
=108	=108	=108	=108	=108	=108	=108	=108
0AA]	.	2.F	.	4e]	.	1r	.
.	.	.	.	4d	.	.	.
.	.	.	.	1d	do-	.	.
.	.	8EL	.	.	.	.	.
.	.	8DJ	.	.	.	.	.
.	.	1E	-mi-	.	.	1a	Qui-
.	.	.	.	2c#i	-mi-	.	.
=109	=109	=109	=109	=109	=109	=109	=109
[0D	.	1D	-no.	[0d	-no.	1a	-a
.	.	1r	.	.	.	[1f	a-
=110	=110	=110	=110	=110	=110	=110	=110
0D]	.	1A	Qui-	0d]	.	2f]	.
.	.	.	.	.	.	2g	-pud
.	.	1A	-a	.	.	2a	do-
.	.	.	.	.	.	2b	-mi-
=111	=111	=111	=111	=111	=111	=111	=111
0r	.	1.F	a-	0r	.	1cc	-num
.	.	.	.	.	.	1cc	mi-
.	.	2G	-pud	.	.	.	.
=112	=112	=112	=112	=112	=112	=112	=112
0r	.	2A	do-	0r	.	2cc	-se-
.	.	2B	-mi-	.	.	2cc	-ri-
.	.	1c	-num	.	.	2cc	-cor-
.	.	.	.	.	.	2cc	-di-
=113	=113	=113	=113	=113	=113	=113	=113
0r	.	1c	mi-	1e	Mi-	1g	-a,
.	.	2c	-se-	2e	-se-	2r	.
.	.	2c	-ri-	2e	-ri-	2g	et
=114	=114	=114	=114	=114	=114	=114	=114
0r	.	2c	-cor-	2e	-cor-	2g	co-
.	.	2c	-di-	2e	-di-	2g	-pi-
.	.	1G	-a...	1d	-a,	1b	-o-
=115	=115	=115	=115	=115	=115	=115	=115
0r	.	0r	.	2r	.	0a	-sa
.	.	.	.	2d	et	.	.
.	.	.	.	2d	co-	.	.
.	.	.	.	2d	-pi-	.	.
=116	=116	=116	=116	=116	=116	=116	=116
0r	.	0r	.	1f	-o-	1a	a-
.	.	.	.	1e	-sa	2g	-pud
.	.	.	.	.	.	2g	e-
=117	=117	=117	=117	=117	=117	=117	=117
0r	.	0r	.	2r	.	2e	-um
.	.	.	.	2d	a-	2.a	re-
.	.	.	.	2d	-pud	.	.
.	.	.	.	.	.	4g	.
.	.	.	.	2d	e-	4f	.
.	.	.	.	.	.	4e	.
=118	=118	=118	=118	=118	=118	=118	=118
0r	.	2r	.	2B	-um	2d	.
.	.	1C	re-	1c	re-	1e	-demp-
.	.	2D	.	4B	.	4d	.
.	.	.	.	4A	.	4c	.
=119	=119	=119	=119	=119	=119	=119	=119
0r	.	2E	-demp-	2G	.	2B	.
.	.	2F	-ti-	1A	-demp-	2A	.
.	.	1E	-o.	.	.	1B	-ti-
.	.	.	.	2G#i	-ti-	.	.
=120	=120	=120	=120	=120	=120	=120	=120
1AA	Et	1r	.	0A	-o.	0A	-o.
1D	ip-	1F	Et	.	.	.	.
=121	=121	=121	=121	=121	=121	=121	=121
1C	-se	1G	ip-	0r	.	0r	.
[1F	re-	1A	-se	.	.	.	.
=122	=122	=122	=122	=122	=122	=122	=122
2F]	.	1.A	re-	0r	.	0r	.
2F	-di-	.	.	.	.	.	.
1F	-met	.	.	.	.	.	.
.	.	2A	-di-	.	.	.	.
=123	=123	=123	=123	=123	=123	=123	=123
2r	.	1A	-met	0r	.	0r	.
2F	Is-	.	.	.	.	.	.
2E	.	2G	Is-	.	.	.	.
[2F	.	[2A	-ra-	.	.	.	.
=124	=124	=124	=124	=124	=124	=124	=124
4F]	.	4A]	.	0r	.	0r	.
4E	.	4B	.	.	.	.	.
4D	.	1c	.	.	.	.	.
4C	.	.	.	.	.	.	.
1D	-ra-	.	.	.	.	.	.
.	.	2B	.	.	.	.	.
=125	=125	=125	=125	=125	=125	=125	=125
[0C	-el...	0c	-el	1r	.	1e	Ex
.	.	.	.	[1G	Ex	[1e	om-
=126	=126	=126	=126	=126	=126	=126	=126
0C_	.	1r	.	1G]	.	2e]	.
.	.	.	.	.	.	2e	-ni-
.	.	1c	ex	[1G	om-	1e	-bus
=127	=127	=127	=127	=127	=127	=127	=127
0C]	.	2c	om-	2G]	.	2r	.
.	.	2c	-ni-	2G	-ni-	2g	in-
.	.	1c	-bus	4G	-bus	2g	-i-
.	.	.	.	4A	.	.	.
.	.	.	.	4B	.	2e	-qui-
.	.	.	.	4c	.	.	.
=128	=128	=128	=128	=128	=128	=128	=128
0r	.	2r	.	1d	.	2f	-ta-
.	.	2G	in-	.	.	2g	-ti-
.	.	2.A	-i-	2r	.	[1c	-bus
.	.	.	.	2A	in-	.	.
.	.	4G	-qui-	.	.	.	.
=129	=129	=129	=129	=129	=129	=129	=129
0r	.	2F	-ta-	2A	-i-	1c]	.
.	.	2F	-ti-	2A	-qui-	.	.
.	.	2E	-bus	1B	-ta-	2.g	e-
.	.	[2G	e-	.	.	.	.
.	.	.	.	.	.	4a	.
=130	=130	=130	=130	=130	=130	=130	=130
0r	.	2G]	.	2d	-ti-	2b	.
.	.	2E	.	2e	-bus	2.cc	.
.	.	2F	.	1d	e-	.	.
.	.	.	.	.	.	4b	.
.	.	2G	.	.	.	2b	.
=131	=131	=131	=131	=131	=131	=131	=131
1r	.	1C	-jus.	[0c	-jus	[0cc	-jus
[1C	Glo-	1G	Glo-	.	.	.	.
=132	=132	=132	=132	=132	=132	=132	=132
2C]	.	2G	-ri-	0c]	.	0cc]	.
2C	-ri-	2G	-a	.	.	.	.
1C	-a	1A	pa-	.	.	.	.
=133	=133	=133	=133	=133	=133	=133	=133
1D	pa-	1B	-tri	0r	.	0r	.
[1E	-tri	2r	.	.	.	.	.
.	.	[2G	et	.	.	.	.
=134	=134	=134	=134	=134	=134	=134	=134
2E]	.	2G]	.	0r	.	0r	.
2F	et	2A	.	.	.	.	.
2E	.	2G	.	.	.	.	.
[2F	fi-	[2A	fi-	.	.	.	.
=135	=135	=135	=135	=135	=135	=135	=135
4F]	.	4A]	.	0r	.	0r	.
4E	.	4G	.	.	.	.	.
1E	.	2E	.	.	.	.	.
.	.	1F	-li-	.	.	.	.
2D	-li-	.	.	.	.	.	.
=136	=136	=136	=136	=136	=136	=136	=136
1E	-o	1E	-o	1.e	Et	0g	Et
2r	.	[1G	et	.	.	.	.
[2E	et	.	.	2d	spi-	.	.
=137	=137	=137	=137	=137	=137	=137	=137
2E]	.	2G]	.	2c	-ri-	1g	spi-
2D	spi-	2F	spi-	2B	-tu-	.	.
2C	-ri-	2E	-ri-	1e	-i	1g	-ri-
2BB	-tu-	2D	-tu-	.	.	.	.
=138	=138	=138	=138	=138	=138	=138	=138
0AA	-i	1C	-i	0e	sanc-	0cc	-tu-
.	.	1E	sanc-	.	.	.	.
=139	=139	=139	=139	=139	=139	=139	=139
0E	sanc-	2.G	.	[0e	-to.	2b	-i
.	.	.	.	.	.	2.a	sanc-
.	.	4A	.	.	.	.	.
.	.	1B	.	.	.	.	.
.	.	.	.	.	.	4g#i	.
.	.	.	.	.	.	2g#i	.
=140	=140	=140	=140	=140	=140	=140	=140
[0AA	-to	2A	-to.	0e_	.	0a	-to.
.	.	2c	Si-	.	.	.	.
.	.	2A	-cut	.	.	.	.
.	.	[2c	e-	.	.	.	.
=141	=141	=141	=141	=141	=141	=141	=141
0AA_	.	4c]	.	0e]	.	2r	.
.	.	4B	.	.	.	.	.
.	.	4A	.	.	.	2cc	Si-
.	.	4G	.	.	.	.	.
.	.	2A	.	.	.	2a	-cut
.	.	2E	.	.	.	[2cc	e-
=142	=142	=142	=142	=142	=142	=142	=142
0AA]	.	[0E	-rat	2r	.	4cc]	.
.	.	.	.	.	.	4b	.
.	.	.	.	2c	Si-	4a	.
.	.	.	.	.	.	4g	.
.	.	.	.	2A	-cut	2a	.
.	.	.	.	[2c	e-	2e	.
=143	=143	=143	=143	=143	=143	=143	=143
2r	.	0E]	.	4c]	.	[0e	-rat
.	.	.	.	4B	.	.	.
2C	Si-	.	.	4A	.	.	.
.	.	.	.	4G	.	.	.
2AA	-cut	.	.	2A	.	.	.
[2C	e-	.	.	2E	.	.	.
=144	=144	=144	=144	=144	=144	=144	=144
4C]	.	1r	.	1E	-rat	0e]	.
4BB	.	.	.	.	.	.	.
4AA	.	.	.	.	.	.	.
4GG	.	.	.	.	.	.	.
2AA	.	2r	.	2r	.	.	.
2EE	.	2E	in	[2G	in	.	.
=145	=145	=145	=145	=145	=145	=145	=145
[0EE	-rat	2E	prin-	4G]	.	2r	.
.	.	.	.	4A	.	.	.
.	.	2.G	-ci-	2B	.	2e	in
.	.	.	.	1E	.	2e	prin-
.	.	4F	.	.	.	.	.
.	.	4E	.	.	.	[2g	-ci-
.	.	4D	.	.	.	.	.
=146	=146	=146	=146	=146	=146	=146	=146
0EE]	.	2E	.	2r	.	4g]	.
.	.	.	.	.	.	4f	.
.	.	2BB	-pi-	2.G	prin-	4e	.
.	.	.	.	.	.	4d	.
.	.	1BB	-o,	.	.	2e	.
.	.	.	.	4A	.	.	.
.	.	.	.	2B	.	2B	-pi-
=147	=147	=147	=147	=147	=147	=147	=147
2r	.	1r	.	2E	.	[0B	-o,
2E	in	.	.	2.G	-ci-	.	.
2E	prin-	2r	.	.	.	.	.
.	.	.	.	4A	.	.	.
[2G	-ci-	2E	in	2B	-pi-	.	.
=148	=148	=148	=148	=148	=148	=148	=148
4G]	.	2E	prin-	1E	-o,	0B]	.
4F	.	.	.	.	.	.	.
4E	.	2.G	-ci-	.	.	.	.
4D	.	.	.	.	.	.	.
2E	.	.	.	1r	.	.	.
.	.	4A	.	.	.	.	.
2BB	-pi-	4B	-pi-	.	.	.	.
.	.	4c	.	.	.	.	.
=149	=149	=149	=149	=149	=149	=149	=149
1BB	-o,	1d	-o,	1r	.	1B	et
1E	et	1G	et	1e	et	2.B	nunc,
.	.	.	.	.	.	4c	.
=150	=150	=150	=150	=150	=150	=150	=150
2D	nunc,	2F	nunc,	2A	nunc,	2d	.
2C	et	2.G	et	2c	et	2.e	et
1BB	sem-	.	.	2d	sem-	.	.
.	.	4F	.	.	.	4d	.
.	.	2D	.	2G	.	[2d	sem-
=151	=151	=151	=151	=151	=151	=151	=151
1AA	-per,	1E	sem-	0A	-per,	2d]	.
.	.	.	.	.	.	2c#i	.
[1D	et	1D	-per,	.	.	1d	-per,
=152	=152	=152	=152	=152	=152	=152	=152
2D]	.	1.A	et	1.d	et	0r	.
2D	in	.	.	.	.	.	.
2D	se-	.	.	.	.	.	.
2D	-cu-	2A	in	2d	in	.	.
=153	=153	=153	=153	=153	=153	=153	=153
1D	-la	2A	se-	2.f	se-	0r	.
.	.	2A	-cu-	.	.	.	.
.	.	.	.	4e	-cu-	.	.
2.F	se-	1A	-la	2d	-la	.	.
.	.	.	.	2c	se-	.	.
4E	-cu-	.	.	.	.	.	.
=154	=154	=154	=154	=154	=154	=154	=154
2D	-lo-	1r	.	2f	-cu-	0r	.
2C	-rum.	.	.	2.e	-lo-	.	.
1F	A-	1A	se-	.	.	.	.
.	.	.	.	4d	.	.	.
.	.	.	.	2d	.	.	.
=155	=155	=155	=155	=155	=155	=155	=155
[0E	-men	1B	-cu-	[0e	-rum.	1r	.
.	.	1B	-lo-	.	.	[1g	et
=156	=156	=156	=156	=156	=156	=156	=156
0E]	.	0G	-rum,	0e_	.	2g]	.
.	.	.	.	.	.	2g	in
.	.	.	.	.	.	2g	se-
.	.	.	.	.	.	2g	-cu-
=157	=157	=157	=157	=157	=157	=157	=157
1r	.	2.c	se-	0e]	.	1g	-la
.	.	4B	-cu-	.	.	.	.
[1C	se-	2A	-lo-	.	.	2.cc	se-
.	.	4G	.	.	.	.	.
.	.	4F	.	.	.	4b	-cu-
=158	=158	=158	=158	=158	=158	=158	=158
2C]	.	4E	.	1r	.	2a	-lo-
.	.	4D	.	.	.	.	.
2BB	-cu-	1G	.	.	.	2g	-rum.
1AA	-lo-	.	.	2.c	A-	1cc	A-
.	.	2F#i	.	.	.	.	.
.	.	.	.	4d	.	.	.
=159	=159	=159	=159	=159	=159	=159	=159
2.GG	-rum.	2.G	-rum.	2e	.	1b	-men,
.	.	.	.	2.d	.	.	.
4AA	.	4F	.	.	.	.	.
2BB	.	2D	.	.	.	2r	.
.	.	.	.	4c	.	.	.
2C	A-	2E	A-	2A	.	[2a	a-
=160	=160	=160	=160	=160	=160	=160	=160
2D	.	2F	.	1B	-men,	2a]	.
2E	.	2G	.	.	.	2g	.
1AA	.	1E	.	2r	.	2.a	.
.	.	.	.	[2A	et	.	.
.	.	.	.	.	.	4g	.
=161	=161	=161	=161	=161	=161	=161	=161
0D	.	0F	.	2A]	.	4f	.
.	.	.	.	.	.	4e	.
.	.	.	.	2A	in	1e	.
.	.	.	.	2A	se-	.	.
.	.	.	.	2A	-cu-	2d	.
=162	=162	=162	=162	=162	=162	=162	=162
1.AA	-men,	[0El	-men.	1A	-la	[0el	-men.
.	.	.	.	2.c	se-	.	.
2BB	.	.	.	.	.	.	.
.	.	.	.	4B	-cu-	.	.
=163	=163	=163	=163	=163	=163	=163	=163
1C	a-	0E_	.	2A	-lo-	0e_	.
.	.	.	.	2G	-rum.	.	.
1AA	.	.	.	1c	A-	.	.
=164	=164	=164	=164	=164	=164	=164	=164
0E	.	0E_	.	[0Bl	-men.	0e_	.
=165	=165	=165	=165	=165	=165	=165	=165
00EEl	-men.	00E]	.	00B]	.	00e]	.
==	==	==	==	==	==	==	==
*-	*-	*-	*-	*-	*-	*-	*-
!!!system-decoration: [*]
!!!RDF**kern: i = editorial accidental
!!!RDF**kern: l = terminal long
!!!ENC: Benjamin Ory
!!!END: 2021/1/5
!!!EED: Benjamin Ory
!!!EEV: 2021/04/22
!!!YEC: Copyright 2021 Benjamin Ory, All Rights Reserved
!!!ONB: Translated from MusicXML on 2021/04/22
